packages/kaspersky-hexa-ui-icons/src/iconsSVGs/28x20/FlagUz.svg

<svg width="28" height="20" viewBox="0 0 28 20" fill="none" xmlns="http://www.w3.org/2000/svg">
<g clip-path="url(#clip0_5138_1978)">
<path d="M0 2C0 0.895431 0.895431 0 2 0H26C27.1046 0 28 0.895431 28 2V18C28 19.1046 27.1046 20 26 20H2C0.895431 20 0 19.1046 0 18V2Z" fill="white"/>
<mask id="mask0_5138_1978" style="mask-type:luminance" maskUnits="userSpaceOnUse" x="0" y="0" width="28" height="20">
<rect width="28" height="20" rx="2" fill="white"/>
</mask>
<g mask="url(#mask0_5138_1978)">
<path d="M26 19.5V20H2V19.5H26ZM27.5 18V2C27.5 1.17157 26.8284 0.5 26 0.5H2C1.17157 0.5 0.5 1.17157 0.5 2V18C0.5 18.8284 1.17157 19.5 2 19.5V20C0.895431 20 0 19.1046 0 18V2C2.57702e-07 0.895431 0.895431 0 2 0H26C27.1046 0 28 0.895431 28 2V18C28 19.1046 27.1046 20 26 20V19.5C26.8284 19.5 27.5 18.8284 27.5 18Z" fill="#F5F5F5"/>
<path fill-rule="evenodd" clip-rule="evenodd" d="M0 6.66667H28V0H0V6.66667Z" fill="#04AAC8"/>
<path fill-rule="evenodd" clip-rule="evenodd" d="M0 20H28V13.3333H0V20Z" fill="#23C840"/>
<path fill-rule="evenodd" clip-rule="evenodd" d="M5.66667 1.66668C5.70411 1.66668 5.74127 1.66791 5.7781 1.67034C5.46024 1.45749 5.07795 1.33334 4.66667 1.33334C3.5621 1.33334 2.66667 2.22877 2.66667 3.33334C2.66667 4.43791 3.5621 5.33334 4.66667 5.33334C5.07795 5.33334 5.46024 5.2092 5.7781 4.99634C5.74127 4.99878 5.70411 5.00001 5.66667 5.00001C4.7462 5.00001 4.00001 4.25382 4.00001 3.33334C4.00001 2.41287 4.7462 1.66668 5.66667 1.66668ZM7.33334 5.33334C7.70153 5.33334 8.00001 5.03487 8.00001 4.66668C8.00001 4.29849 7.70153 4.00001 7.33334 4.00001C6.96515 4.00001 6.66667 4.29849 6.66667 4.66668C6.66667 5.03487 6.96515 5.33334 7.33334 5.33334ZM10.6667 2.00001C10.6667 2.3682 10.3682 2.66668 10 2.66668C9.63181 2.66668 9.33334 2.3682 9.33334 2.00001C9.33334 1.63182 9.63181 1.33334 10 1.33334C10.3682 1.33334 10.6667 1.63182 10.6667 2.00001ZM12.6667 2.66668C13.0349 2.66668 13.3333 2.3682 13.3333 2.00001C13.3333 1.63182 13.0349 1.33334 12.6667 1.33334C12.2985 1.33334 12 1.63182 12 2.00001C12 2.3682 12.2985 2.66668 12.6667 2.66668ZM13.3333 4.66668C13.3333 5.03487 13.0349 5.33334 12.6667 5.33334C12.2985 5.33334 12 5.03487 12 4.66668C12 4.29849 12.2985 4.00001 12.6667 4.00001C13.0349 4.00001 13.3333 4.29849 13.3333 4.66668ZM10 5.33334C10.3682 5.33334 10.6667 5.03487 10.6667 4.66668C10.6667 4.29849 10.3682 4.00001 10 4.00001C9.63181 4.00001 9.33334 4.29849 9.33334 4.66668C9.33334 5.03487 9.63181 5.33334 10 5.33334Z" fill="white"/>
</g>
</g>
<defs>
<clipPath id="clip0_5138_1978">
<rect width="28" height="20" fill="white"/>
</clipPath>
</defs>
</svg>

<svg xmlns="http://www.w3.org/2000/svg" width="28" height="20" fill="none" viewBox="0 0 28 20"><g clip-path="url(#a)"><path fill="#fff" d="M0 2C0 .8954.8954 0 2 0h24c1.1046 0 2 .8954 2 2v16c0 1.1046-.8954 2-2 2H2c-1.1046 0-2-.8954-2-2z"/><mask id="b" width="28" height="20" x="0" y="0" maskUnits="userSpaceOnUse" style="mask-type:luminance"><rect width="28" height="20" fill="#fff" rx="2"/></mask><g mask="url(#b)"><path fill="#f5f5f5" d="M26 19.5v.5H2v-.5zm1.5-1.5V2c0-.8284-.6716-1.5-1.5-1.5H2C1.1716.5.5 1.1716.5 2v16c0 .8284.6716 1.5 1.5 1.5v.5c-1.1046 0-2-.8954-2-2V2C0 .8954.8954 0 2 0h24c1.1046 0 2 .8954 2 2v16c0 1.1046-.8954 2-2 2v-.5c.8284 0 1.5-.6716 1.5-1.5"/><path fill="#04aac8" fill-rule="evenodd" d="M0 6.6667h28V0H0z" clip-rule="evenodd"/><path fill="#23c840" fill-rule="evenodd" d="M0 20h28v-6.6667H0z" clip-rule="evenodd"/><path fill="#fff" fill-rule="evenodd" d="M5.6667 1.6667q.0561 0 .1114.0036a1.99 1.99 0 0 0-1.1114-.337c-1.1046 0-2 .8955-2 2s.8954 2 2 2c.4113 0 .7935-.1241 1.1114-.337A1.7 1.7 0 0 1 5.6667 5C4.7462 5 4 4.2538 4 3.3333c0-.9204.7462-1.6666 1.6667-1.6666m1.6666 3.6666a.6667.6667 0 1 0 0-1.3333.6667.6667 0 0 0 0 1.3333M10.6667 2a.6667.6667 0 1 1-1.3334 0 .6667.6667 0 0 1 1.3334 0m2 .6667A.6666.6666 0 0 0 13.3333 2 .6666.6666 0 1 0 12 2c0 .3682.2985.6667.6667.6667m.6666 2a.6666.6666 0 1 1-1.3333 0 .6667.6667 0 0 1 1.3333 0M10 5.3333A.6667.6667 0 1 0 10 4a.6667.6667 0 0 0 0 1.3333" clip-rule="evenodd"/></g></g><defs><clipPath id="a"><path fill="#fff" d="M0 0h28v20H0z"/></clipPath></defs></svg>
